dist/img/svg/american.svg

<svg width="55" height="54" viewBox="0 0 55 54" fill="none" xmlns="http://www.w3.org/2000/svg">
<path d="M0.00799561 0V53.95H53.957V29.404V0H0.00799561Z" fill="#889099"/>
<mask id="mask0_9716_324" style="mask-type:alpha" maskUnits="userSpaceOnUse" x="0" y="16" width="54" height="23">
<path fill-rule="evenodd" clip-rule="evenodd" d="M0 16.733V38.83H53.965V16.733H0Z" fill="white"/>
</mask>
<g mask="url(#mask0_9716_324)">
<path fill-rule="evenodd" clip-rule="evenodd" d="M51.404 26.16H47.3534L46.4725 24.7612V26.16H40.6416L40.1241 24.8068H39.1614L38.6528 26.16H35.1745C34.8572 26.16 34.5232 26.134 34.1877 26.0732C33.9822 26.0359 33.7758 25.9859 33.5727 25.9197C33.4084 25.8667 33.2461 25.8039 33.0872 25.7303C32.9288 25.6563 32.7728 25.5714 32.6227 25.4743V25.8584V26.16H26.8104L25.7569 24.7887V26.16H4.72295L4.20503 24.8068H3.24228L2.73368 26.16H-9.15527e-05V25.3208V20.765L1.7258 16.7325H5.58565L6.43952 18.659V16.7325H11.1709L11.7344 18.3765L12.2881 16.7325H32.6227V17.1455V17.4697C32.7998 17.3515 32.9866 17.248 33.1818 17.1583C33.3481 17.0822 33.5207 17.0165 33.6983 16.9611C33.9244 16.8905 34.1588 16.8365 34.3996 16.7988C34.6826 16.7546 34.9749 16.7325 35.2741 16.7325H41.5048L42.3493 18.6389V16.7325H46.1184L47.0807 18.2402V16.7325H51.404V26.16ZM53.9647 29.4038V38.2496C53.7523 38.3805 53.5208 38.4924 53.2736 38.5821C52.8342 38.7415 52.3442 38.8303 51.8214 38.8303H33.6576L32.6041 37.4595V38.8303H28.4176V36.4384C27.8168 36.6615 27.1385 36.7964 26.392 36.7964H26.4553V38.8303H20.4522L19.5895 37.6042L18.7538 38.8303H9.16348V29.4038H18.7905L19.6346 30.6118L20.4885 29.4038H53.4924H53.9647Z" fill="#323642"/>
</g>
<path fill-rule="evenodd" clip-rule="evenodd" d="M15.73 30.9384V32.2282H12.1703V33.4632H15.6486V34.7349H12.1703V36.015H15.73V37.2961H10.644V30.9384H15.73ZM21.0249 37.2961H22.9322L20.3799 34.09L22.9141 30.9384H21.0617L19.4991 32.9546L17.9463 30.9384H16.039L18.582 34.117L16.0478 37.2961H17.9007L19.4628 35.2524L21.0249 37.2961ZM23.2682 37.2961V30.9384H26.7646C28.1183 30.9384 28.9623 31.8015 28.9623 33.0635C28.9623 34.2896 28.1001 35.1974 26.7102 35.1974H24.794V37.2961H23.2682ZM32.0326 35.0071H31.315V37.2961H29.7892V30.9384H33.2405C34.5937 30.9384 35.4382 31.7648 35.4382 32.9546C35.4382 33.9718 34.7938 34.7526 33.7128 34.9527L35.8286 37.2961H33.9306L32.0326 35.0071ZM41.6233 30.9384V32.2282H38.0631V33.4632H41.5414V34.7349H38.0631V36.015H41.6233V37.2961H36.5373V30.9384H41.6233ZM45.8098 36.0243H42.5498V37.2961H45.7642C47.136 37.2961 47.9536 36.4603 47.9536 35.2705C47.9536 34.1351 47.2179 33.4725 45.9824 33.4725H44.5111C44.1477 33.4725 43.8936 33.2361 43.8936 32.8639C43.8936 32.4823 44.1477 32.2282 44.5111 32.2282H47.2718L47.8354 30.9384H44.5562C43.1849 30.9384 42.3673 31.7741 42.3673 32.9183C42.3673 34.09 43.1398 34.7619 44.3478 34.7619H45.8098C46.1727 34.7619 46.4361 34.9978 46.4361 35.3799C46.4361 35.7698 46.1727 36.0243 45.8098 36.0243ZM51.8585 36.0243H48.598V37.2961H51.8124C53.1847 37.2961 54.0018 36.4603 54.0018 35.2705C54.0018 34.1351 53.2661 33.4725 52.0312 33.4725H50.5598C50.1959 33.4725 49.9423 33.2361 49.9423 32.8639C49.9423 32.4823 50.1959 32.2282 50.5598 32.2282H53.3201L53.8841 30.9384H50.6049C49.2331 30.9384 48.4161 31.7741 48.4161 32.9183C48.4161 34.09 49.1885 34.7619 50.3965 34.7619H51.8585C52.2215 34.7619 52.4848 34.9978 52.4848 35.3799C52.4848 35.7698 52.2215 36.0243 51.8585 36.0243ZM33.1042 32.2371C33.6491 32.2371 33.9399 32.5912 33.9399 33.0277C33.9399 33.4632 33.6491 33.808 33.1042 33.808H31.315V32.2371H33.1042ZM27.4277 33.0723C27.4277 33.5 27.1555 33.8536 26.6195 33.8536H24.794V32.292H26.6195C27.1555 32.292 27.4277 32.6368 27.4277 33.0723Z" fill="#889099"/>
<path fill-rule="evenodd" clip-rule="evenodd" d="M7.47462 24.625H5.75804L5.21315 23.2626H2.18904L1.65297 24.625H0.0271301L2.75207 18.2673H4.759L7.47462 24.625ZM9.27261 18.5675L9.30939 20.2841V24.625H7.82873V18.2673H10.5081L11.7249 22.7721L12.9328 18.2673H15.621V24.625H14.1408V20.2747L14.1771 18.6038L12.4154 24.625H11.0348L9.27261 18.5675ZM21.9606 19.5572V18.2673H16.8746V24.625H21.9606V23.3263H18.4004V22.0639H21.8787V20.7927H18.4004V19.5572H21.9606ZM25.3206 22.3366H24.6031V24.625H23.0773V18.2673H26.5286C27.8818 18.2673 28.7268 19.0942 28.7268 20.2841C28.7268 21.3008 28.0819 22.0821 27.0009 22.2817L29.1172 24.625H27.2192L25.3206 22.3366ZM31.1241 24.625H29.5983V21.7907V18.2673H31.1241V21.827V24.625ZM35.0203 24.625H35.1022L35.7285 23.2719H35.2655C34.2208 23.2719 33.6034 22.6181 33.6034 21.492V21.4013C33.6034 20.3929 34.1571 19.6391 35.2474 19.6391H36.9002V18.2673H35.1203C33.1585 18.2673 32.0869 19.5847 32.0869 21.392V21.5009C32.0869 23.3901 33.186 24.6162 35.0203 24.625ZM43.3932 24.625H41.6772L41.1323 23.2626H38.1082L37.5721 24.625H35.9467L38.6707 18.2673H40.6786L43.3932 24.625ZM45.2373 20.8196L45.2192 20.2929L45.537 20.8196L47.9706 24.625H49.7514V18.2673H48.2619V21.9457L48.2801 22.418L47.9986 21.9457L45.6184 18.2673H43.7483V24.625H45.2373V20.8196ZM39.1528 20.6382L39.6158 19.4483L40.0783 20.6382L40.6423 22.0458H38.5986L39.1528 20.6382ZM26.3923 19.5665C26.9372 19.5665 27.228 19.9206 27.228 20.3567C27.228 20.7927 26.9372 21.1374 26.3923 21.1374H24.6031V19.5665H26.3923ZM3.2332 20.6382L3.69668 19.4483L4.15967 20.6382L4.7227 22.0458H2.67949L3.2332 20.6382Z" fill="#889099"/>
</svg>

<svg width="55" height="54" viewBox="0 0 55 54" fill="none" xmlns="http://www.w3.org/2000/svg"><path d="M.008 0v53.95h53.949V0H.008z" fill="#889099"/><mask id="mask0_9716_324" style="mask-type:alpha" maskUnits="userSpaceOnUse" x="0" y="16" width="54" height="23"><path fill-rule="evenodd" clip-rule="evenodd" d="M0 16.733V38.83h53.965V16.733H0z" fill="#fff"/></mask><g mask="url(#mask0_9716_324)"><path fill-rule="evenodd" clip-rule="evenodd" d="M51.404 26.16h-4.05l-.882-1.399v1.399h-5.83l-.518-1.353h-.963l-.508 1.353h-3.478a5.53 5.53 0 01-.987-.087 4.685 4.685 0 01-1.1-.343 3.873 3.873 0 01-.465-.256v.686H26.81l-1.053-1.371v1.371H4.723l-.518-1.353h-.963l-.508 1.353H0v-5.395l1.726-4.032h3.86l.854 1.926v-1.926h4.73l.564 1.643.554-1.643h20.335v.737a4.057 4.057 0 011.075-.509c.226-.07.46-.124.702-.162.283-.044.575-.066.874-.066h6.23l.845 1.906v-1.906h3.77l.962 1.507v-1.507h4.323v9.427zm2.56 3.244v8.846c-.212.13-.443.242-.69.332-.44.16-.93.248-1.453.248H33.658l-1.054-1.37v1.37h-4.186v-2.392a5.8 5.8 0 01-2.026.358h.063v2.034h-6.003l-.863-1.226-.835 1.226h-9.59v-9.426h9.627l.844 1.208.853-1.208h33.477z" fill="#323642"/></g><path fill-rule="evenodd" clip-rule="evenodd" d="M15.73 30.938v1.29h-3.56v1.235h3.479v1.272H12.17v1.28h3.56v1.281h-5.086v-6.358h5.086zm5.295 6.358h1.907L20.38 34.09l2.534-3.152h-1.852l-1.563 2.017-1.553-2.017H16.04l2.543 3.179-2.534 3.18H17.9l1.562-2.045 1.562 2.044zm2.243 0v-6.358h3.497c1.353 0 2.197.864 2.197 2.125 0 1.227-.862 2.134-2.252 2.134h-1.916v2.1h-1.526zm8.765-2.289h-.718v2.29h-1.526v-6.359h3.451c1.354 0 2.198.827 2.198 2.017 0 1.017-.644 1.798-1.725 1.998l2.116 2.343H33.93l-1.898-2.289zm9.59-4.069v1.29h-3.56v1.235h3.478v1.272h-3.478v1.28h3.56v1.281h-5.086v-6.358h5.086zm4.187 5.086h-3.26v1.272h3.214c1.372 0 2.19-.836 2.19-2.026 0-1.135-.736-1.798-1.972-1.798h-1.47c-.364 0-.618-.236-.618-.608 0-.382.254-.636.617-.636h2.76l.564-1.29h-3.279c-1.371 0-2.189.836-2.189 1.98 0 1.172.773 1.844 1.98 1.844h1.463c.363 0 .626.236.626.618 0 .39-.263.644-.626.644zm6.048 0h-3.26v1.272h3.214c1.373 0 2.19-.836 2.19-2.026 0-1.135-.736-1.798-1.97-1.798H50.56c-.364 0-.618-.236-.618-.608 0-.382.254-.636.618-.636h2.76l.564-1.29h-3.28c-1.37 0-2.188.836-2.188 1.98 0 1.172.773 1.844 1.98 1.844h1.462c.364 0 .627.236.627.618 0 .39-.264.644-.627.644zm-18.754-3.787c.545 0 .836.354.836.79 0 .436-.29.781-.836.781h-1.789v-1.57h1.79zm-5.676.835c0 .428-.273.782-.809.782h-1.825v-1.562h1.825c.537 0 .809.345.809.78zM7.475 24.625H5.758l-.545-1.362H2.19l-.536 1.362H.027l2.725-6.358H4.76l2.716 6.358zm1.798-6.058l.036 1.717v4.341H7.83v-6.358h2.68l1.216 4.505 1.208-4.505h2.688v6.358h-1.48v-4.35l.036-1.671-1.762 6.021h-1.38l-1.762-6.058zm12.688.99v-1.29h-5.086v6.358h5.086v-1.299H18.4v-1.262h3.478v-1.271H18.4v-1.236h3.56zm3.36 2.78h-.718v2.288h-1.526v-6.358h3.452c1.353 0 2.198.827 2.198 2.017 0 1.017-.645 1.798-1.726 1.998l2.116 2.343H27.22l-1.898-2.288zm5.803 2.288h-1.526v-6.358h1.526v6.358zm3.896 0h.082l.627-1.353h-.463c-1.045 0-1.663-.654-1.663-1.78v-.09c0-1.01.554-1.763 1.644-1.763H36.9v-1.372h-1.78c-1.962 0-3.033 1.318-3.033 3.125v.109c0 1.89 1.099 3.115 2.933 3.124zm8.373 0h-1.716l-.545-1.362h-3.024l-.536 1.362h-1.625l2.724-6.358h2.008l2.714 6.358zm1.844-3.805l-.018-.527.318.527 2.434 3.805h1.78v-6.358h-1.49v3.679l.02.472-.282-.472-2.38-3.679h-1.87v6.358h1.488V20.82zm-6.084-.182l.463-1.19.462 1.19.564 1.408H38.6l.554-1.408zm-12.76-1.072c.544 0 .835.355.835.79 0 .437-.29.781-.836.781h-1.789v-1.57h1.79zm-23.16 1.072l.464-1.19.463 1.19.563 1.408H2.679l.554-1.408z" fill="#889099"/></svg>36 26.6195 33.8536H24.794V32.292H26.6195C27.1555 32.292 27.4277 32.6368 27.4277 33.0723Z" fill="#889099"/>
<path fill-rule="evenodd" clip-rule="evenodd" d="M7.47462 24.625H5.75804L5.21315 23.2626H2.18904L1.65297 24.625H0.0271301L2.75207 18.2673H4.759L7.47462 24.625ZM9.27261 18.5675L9.30939 20.2841V24.625H7.82873V18.2673H10.5081L11.7249 22.7721L12.9328 18.2673H15.621V24.625H14.1408V20.2747L14.1771 18.6038L12.4154 24.625H11.0348L9.27261 18.5675ZM21.9606 19.5572V18.2673H16.8746V24.625H21.9606V23.3263H18.4004V22.0639H21.8787V20.7927H18.4004V19.5572H21.9606ZM25.3206 22.3366H24.6031V24.625H23.0773V18.2673H26.5286C27.8818 18.2673 28.7268 19.0942 28.7268 20.2841C28.7268 21.3008 28.0819 22.0821 27.0009 22.2817L29.1172 24.625H27.2192L25.3206 22.3366ZM31.1241 24.625H29.5983V21.7907V18.2673H31.1241V21.827V24.625ZM35.0203 24.625H35.1022L35.7285 23.2719H35.2655C34.2208 23.2719 33.6034 22.6181 33.6034 21.492V21.4013C33.6034 20.3929 34.1571 19.6391 35.2474 19.6391H36.9002V18.2673H35.1203C33.1585 18.2673 32.0869 19.5847 32.0869 21.392V21.5009C32.0869 23.3901 33.186 24.6162 35.0203 24.625ZM43.3932 24.625H41.6772L41.1323 23.2626H38.1082L37.5721 24.625H35.9467L38.6707 18.2673H40.6786L43.3932 24.625ZM45.2373 20.8196L45.2192 20.2929L45.537 20.8196L47.9706 24.625H49.7514V18.2673H48.2619V21.9457L48.2801 22.418L47.9986 21.9457L45.6184 18.2673H43.7483V24.625H45.2373V20.8196ZM39.1528 20.6382L39.6158 19.4483L40.0783 20.6382L40.6423 22.0458H38.5986L39.1528 20.6382ZM26.3923 19.5665C26.9372 19.5665 27.228 19.9206 27.228 20.3567C27.228 20.7927 26.9372 21.1374 26.3923 21.1374H24.6031V19.5665H26.3923ZM3.2332 20.6382L3.69668 19.4483L4.15967 20.6382L4.7227 22.0458H2.67949L3.2332 20.6382Z" fill="#889099"/>
</svg>
